assets/Tractor/Flat/tractor_flat.svg

<svg width="32" height="32" viewBox="0 0 32 32" fill="none" xmlns="http://www.w3.org/2000/svg">
<path d="M15 7C14.4477 7 14 7.44772 14 8C14 8.55228 14.4477 9 15 9H15.6772L20.8386 9.99539L26 9V8C26 7.44772 25.5523 7 25 7H15ZM26 16L19 14.5L11 16.0001H5C3.5 16.0001 2 17.5 2 19.0301V19.9929V20.0101V25.0038C2 26.1018 2.89931 27.0001 3.99846 27.0001H14.98H25.2521C26.7709 27.0001 28 25.7724 28 24.2551V18.4357C28 17.2376 27.139 16.2447 26 16.0391C26 16 26 16 26 16Z" fill="#00F397"/>
<path d="M10 17H9V13.4988C9 13.2195 9.22 13 9.5 13C9.78 13 10 13.2195 10 13.4988V17Z" fill="#D3D3D3"/>
<path d="M10 14H9V15H10V14Z" fill="#9B9B9B"/>
<path d="M30 24.5101C30 27.5477 27.5376 30.0101 24.5 30.0101C21.4625 30.0101 19 27.5477 19 24.5101C19 21.4726 21.4625 19.0101 24.5 19.0101C27.5376 19.0101 30 21.4726 30 24.5101ZM11.02 26.5101C11.02 28.4431 9.45302 30.0101 7.52002 30.0101C5.58702 30.0101 4.02002 28.4431 4.02002 26.5101C4.02002 24.5771 5.58702 23.0101 7.52002 23.0101C9.45302 23.0101 11.02 24.5771 11.02 26.5101Z" fill="#321B41"/>
<path d="M27 24.5C27 25.8807 25.8807 27 24.5 27C23.1193 27 22 25.8807 22 24.5C22 23.1193 23.1193 22 24.5 22C25.8807 22 27 23.1193 27 24.5ZM9 26.5C9 27.3284 8.32843 28 7.5 28C6.67157 28 6 27.3284 6 26.5C6 25.6716 6.67157 25 7.5 25C8.32843 25 9 25.6716 9 26.5Z" fill="#D3D3D3"/>
<path d="M15.68 9L11 16H25V9H15.68Z" fill="#26C9FC"/>
<path d="M18 9H17V16H18V9ZM26 9H25V16H26V9ZM23.99 18.0001C20.6772 18.0001 18 20.6852 18 24C18 24.2761 17.7762 24.5 17.5 24.5C17.2239 24.5 17 24.2761 17 24C17 20.1348 20.1229 17.0001 23.99 17.0001H29.51C29.7862 17.0001 30.01 17.224 30.01 17.5001C30.01 17.7763 29.7862 18.0001 29.51 18.0001H23.99ZM5.52002 21.5101C5.52002 21.234 5.74388 21.0101 6.02002 21.0101H8.51002C10.9962 21.0101 13.01 23.024 13.01 25.5101C13.01 25.7863 12.7862 26.0101 12.51 26.0101C12.2339 26.0101 12.01 25.7863 12.01 25.5101C12.01 23.5763 10.4439 22.0101 8.51002 22.0101H6.02002C5.74388 22.0101 5.52002 21.7863 5.52002 21.5101Z" fill="#008463"/>
<path d="M3.50739 20.0001H2V19.0001H3.50739C3.78325 19.0001 4 19.2201 4 19.5001C4 19.7801 3.78325 20.0001 3.50739 20.0001ZM3.50739 22H2V21H3.50739C3.78325 21 4 21.22 4 21.5C4 21.77 3.78325 22 3.50739 22ZM2 24H3.50739C3.78325 24 4 23.77 4 23.5C4 23.22 3.78325 23 3.50739 23H2V24Z" fill="#321B41"/>
</svg>

<svg xmlns="http://www.w3.org/2000/svg" width="32" height="32" fill="none"><path fill="#00F397" d="M15 7a1 1 0 1 0 0 2h.677l5.162.995L26 9V8a1 1 0 0 0-1-1H15Zm11 9-7-1.5-8 1.5H5c-1.5 0-3 1.5-3 3.03v5.974C2 26.102 2.9 27 3.998 27H25.252A2.745 2.745 0 0 0 28 24.255v-5.82a2.433 2.433 0 0 0-2-2.396V16Z"/><path fill="#D3D3D3" d="M10 17H9v-3.501c0-.28.22-.499.5-.499s.5.22.5.499V17Z"/><path fill="#9B9B9B" d="M10 14H9v1h1v-1Z"/><path fill="#321B41" d="M30 24.51a5.5 5.5 0 1 1-11 0 5.5 5.5 0 0 1 11 0Zm-18.98 2a3.5 3.5 0 1 1-7 0 3.5 3.5 0 0 1 7 0Z"/><path fill="#D3D3D3" d="M27 24.5a2.5 2.5 0 1 1-5 0 2.5 2.5 0 0 1 5 0Zm-18 2a1.5 1.5 0 1 1-3 0 1.5 1.5 0 0 1 3 0Z"/><path fill="#26C9FC" d="M15.68 9 11 16h14V9h-9.32Z"/><path fill="#008463" d="M18 9h-1v7h1V9Zm8 0h-1v7h1V9Zm-2.01 9A5.991 5.991 0 0 0 18 24a.5.5 0 1 1-1 0c0-3.865 3.123-7 6.99-7h5.52a.5.5 0 1 1 0 1h-5.52ZM5.52 21.51a.5.5 0 0 1 .5-.5h2.49c2.486 0 4.5 2.014 4.5 4.5a.5.5 0 1 1-1 0c0-1.934-1.566-3.5-3.5-3.5H6.02a.5.5 0 0 1-.5-.5Z"/><path fill="#321B41" d="M3.507 20H2v-1h1.507c.276 0 .493.22.493.5s-.217.5-.493.5Zm0 2H2v-1h1.507c.276 0 .493.22.493.5 0 .27-.217.5-.493.5ZM2 24h1.507c.276 0 .493-.23.493-.5 0-.28-.217-.5-.493-.5H2v1Z"/></svg>
